X: 9112
T: Musical Crow (with piano acc.)
C: BB
R: reel
Q: 1/8=350
M: 4/4
L: 1/8
V: 1 program 1 73 %flute
V: 2 volume=70 program 1 01 clef=bass m=D
K: G
[V:1] "G"DEGd BG (3GFG|"Em"EGBG "Am7"AGEG|"G"DEGd BGBd|"Am7"ecAG "D7"FdcA|
[V:2] G,,2[G2B2D2]D,2[G2B2D2]|E,2[E2B2G2]A,,2[G2C2E2]|G,,2[G2B2D2]D,2[G2B2D2]|\
A,,2[G2C2E2]D,2[A2C2F2]|
%
[V:1] "G"DEGd BG (3GFG|"Em"EGBG "Am7"AGEC|"G"B,DGD "C"EGce|"D"dAFA "G"G4 :|
[V:2] G,,2[G2B2D2]D,2[G2B2D2]|E,2[E2B2G2]A,,2[G2C2E2]|G,,2[G2B2D2]C,2[E2G2C2]|\
D,2[A2D2F2][G,,4B,4D,4] :|
%
[V:1] "Em"edBd eg (3gfg|"C"eg (3gfg "Am"agef|"G"gedB ABGE|"D"DEGF "G"G3 B|
[V:2] E,2[E2B2G2]B,,2[E2G2B2]|C,2[E2G2C2]A,,2[A2C2E2]|G,,2[G2B2D2]D,2[G2B2D2]|\
D,2[A2D2F2]G,,2[G2B2D2]|
%
[V:1] "Em"edBd eg (3gfg|"C"eg (3gfg "Am"agef|"G"gfed "Em"eBdB|"D"AFDF "G"G4 :|
[V:2] E,2[E2B2G2]B,,2[E2G2B2]|C,2[E2G2C2]A,,2[A2C2E2]|G,,2[G2B2D2]E,2[E2B2G2]|\
D,2[A2D2F2][G,,4B,4D,4]  :|
%%%%%%tune repeat
[V:1] "G"DEGd BG (3GFG|"Em"EGBG "Am7"AGEG|"G"DEGd BGBd|"Am7"ecAG "D7"FdcA|
[V:2] G,,2[G2B2D2]D,2[G2B2D2]|E,2[E2B2G2]A,,2[G2C2E2]|G,,2[G2B2D2]D,2[G2B2D2]|\
A,,2[G2C2E2]D,2[A2C2F2]|
%
[V:1] "G"DEGd BG (3GFG|"Em"EGBG "Am7"AGEC|"G"B,DGD "C"EGce|"D"dAFA "G"G4 :|
[V:2] G,,2[G2B2D2]D,2[G2B2D2]|E,2[E2B2G2]A,,2[G2C2E2]|G,,2[G2B2D2]C,2[E2G2C2]|\
D,2[A2D2F2][G,,4B,4D,4] :|
%
[V:1] "Em"edBd eg (3gfg|"C"eg (3gfg "Am"agef|"G"gedB ABGE|"D"DEGF "G"G3 B|
[V:2] E,2[E2B2G2]B,,2[E2G2B2]|C,2[E2G2C2]A,,2[A2C2E2]|G,,2[G2B2D2]D,2[G2B2D2]|\
D,2[A2D2F2]G,,2[G2B2D2]|
%
[V:1] "Em"edBd eg (3gfg|"C"eg (3gfg "Am"agef|"G"gfed "Em"eBdB|1 "D"AFDF "G"G4 :|2\
"D"AFDF "G" HG4 ||
[V:2] E,2[E2B2G2]B,,2[E2G2B2]|C,2[E2G2C2]A,,2[A2C2E2]|G,,2[G2B2D2]E,2[E2B2G2]|1\
D,2[A2D2F2][G,,4B,4D,4]  :|2 D,2[A2D2F2]H[G,,4B,4D,4] ||
%%%%%%%%%%%%%%%%%%%%%%%%%%%%%%%%%%%%%%%%%%%
